X:1
T:Colo, 87.87.47
T:Colo, 87.87.47
T:Thomas Olivers (1725-1799)
T:Public Domain Courtesy of the Cyber Hymnal™
C:Thomas Olivers (1725-1799)
Z:Public Domain
Z:Courtesy of the Cyber Hymnal™
%%score ( 1 2 ) ( 3 4 )
L:1/8
Q:1/4=115
M:2/2
K:A
V:1 treble 
V:2 treble 
V:3 bass 
V:4 bass 
V:1
 [EA]4 (c2 e2) | (A2 G2) ([DF]2 [CE]2) | ([DF]3 [EG] [FA]2) ([EG][DF]) x4 | ([CE]3 [B,D]) [A,C]4 | %4
 [B,E]6 [B,E]2 | [EA]6 [EB]2 | (c2 e2) (d2 c2) | (c4 B4) | [EA]4 (c2 e2) | (A2 G2) ([DF]2 [CE]2) | %10
 ([DF]3 [EG] [FA]2) ([EG][DF]) x4 | ([CE]3 [B,D]) [A,C]4 | [B,E]6 [B,E]2 | [EA]6 [EB]2 | %14
 (c2 e2) (d2 c2) | (c4 B4) | (B3 c B2) [Ec]2 | [Ed]4 [Ec]4 | (A3 B A2) [Ad]2 | ([Ac]2 [GB]2) A4 | %20
 ([Ac]3 [Gd] [Ac]2) [Ae]2 | ([Gd]2 [Ac]2) [GB]4 | [EA]4 (A2 Bc) | E4 [Dd]4 | [Ec]4 B4 | [CA]8 |] %26
V:2
 x4 E4 | E4 x4 | x12 | x8 | x8 | x8 | E4 F4 | E8 | x4 E4 | E4 x4 | x12 | x8 | x8 | x8 | E4 F4 | %15
 E8 | E6 x2 | x8 | E6 x2 | x4 A4 | x8 | x8 | x4 C4 | E4 x4 | x4 (E2 D2) | x8 |] %26
V:3
 [A,C]4 ([A,,C]2 [B,,B,]2) | [C,A,]4 A,4 | A,4 z2 x6 | [E,G,]4 [A,,A,]4 | [E,G,]6 [D,G,]2 | %5
 [C,A,]6 [E,G,]2 | (A,2 C2) (B,2 A,2) | (A,4 G,4) | [A,C]4 ([A,C]2 [G,B,]2) | [C,A,]4 A,4 | %10
 (A,4 z2) x6 | [A,,A,]4 [A,,A,]4 | [E,G,]6 [D,G,]2 | [C,A,]6 [G,B,]2 | (A,2 C2) (B,2 A,2) | %15
 (A,4 G,4) | (G,3 A, G,2) [E,A,]2 | [G,B,]4 A,4 | (C3 D C2) [A,F]2 | (E2 D2) [A,C]4 | E6 [CE]2 | %21
 E4 [E,E]4 | [C,A,]4 [A,,A,]4 | [C,A,]4 [F,A,]4 | [E,A,]4 [E,G,]4 | [A,,A,]8 |] %26
V:4
 x8 | x4 (D,2 A,,2) | D,6 A,4 D,2 | x8 | x8 | x8 | A,4 D,4 | E,8 | x8 | x4 (D,2 A,,2) | %10
 D,6 A,4 D,2 | x8 | x8 | x8 | A,4 D,4 | E,8 | E,6 x2 | x4 A,4 | A,6 x2 | A,4 x4 | (A,3 B, A,2) x2 | %21
 (B,2 A,2) x4 | x8 | x8 | x8 | x8 |] %26

